X: 27486
T: Molly Quinlan's
R: jig
M: 6/8
K: Dmajor
|:e|AAA c2 d|eee efe|AAA cde|dBG-G2 B|
AAA c2 d|eee a2 e|a2 e ead|ceA-A2:|
|:f|g2 A gfe|f (3AAA fed|e (3AAA ABA|G3 gdB|
AAA c2 d|eee a2 e|a2 e ead|ceA-A2:|

